src/assets/new_UI/back_time.svg

<svg width="19" height="18" viewBox="0 0 19 18" fill="none" xmlns="http://www.w3.org/2000/svg">
<path d="M3.54361 2.17025L3.37331 2.34051V3.74951V5.15851L3.55535 5.31115L3.7374 5.4638H5.08219C5.89846 5.4638 6.47983 5.44031 6.5503 5.40509C6.86154 5.23483 6.90852 4.72407 6.62664 4.45988C6.49158 4.33072 6.40936 4.31898 5.82212 4.28963L5.1644 4.26027L5.48739 4.0137C5.95131 3.66145 6.62077 3.36204 7.17865 3.25636C7.57798 3.18004 8.11825 3.1683 10.4907 3.18591C13.6677 3.20939 13.5385 3.19765 14.4429 3.66145C15.0888 3.99609 15.7642 4.67123 16.0989 5.31703C16.5687 6.23288 16.557 6.11546 16.557 9.51468C16.557 12.9139 16.5687 12.7965 16.0989 13.7123C15.7642 14.3581 15.0888 15.0333 14.4429 15.3679C13.5268 15.8376 13.6442 15.8258 10.2441 15.8258C6.84392 15.8258 6.96137 15.8376 6.04527 15.3679C5.3993 15.0333 4.72397 14.3581 4.38924 13.7123C3.96055 12.8787 3.94293 12.7847 3.91944 11.0117C3.9077 10.0607 3.87246 9.36204 3.83136 9.26223C3.76089 9.08611 3.51424 8.92759 3.31458 8.92759C3.10905 8.92759 2.86828 9.08611 2.78606 9.27397C2.73321 9.40313 2.72146 9.8728 2.73908 11.0822C2.76257 12.6497 2.77432 12.7378 2.92113 13.2309C3.19713 14.1292 3.54948 14.7339 4.18958 15.409C4.85904 16.1018 5.56373 16.5362 6.52681 16.8356L7.04359 17H10.2441H13.4446L13.9613 16.8356C14.9244 16.5362 15.6291 16.1018 16.2986 15.409C16.9328 14.7397 17.2851 14.1409 17.567 13.2309L17.7314 12.7143V9.51468V6.31507L17.567 5.79843C17.0091 4.00196 15.7583 2.75147 13.9613 2.19374L13.4446 2.02935H10.2441H7.04359L6.52681 2.19374C5.91608 2.38161 5.41692 2.62231 4.91776 2.97456L4.5478 3.22701V2.90411C4.5478 2.33464 4.3129 2 3.91357 2C3.77263 2 3.66693 2.05284 3.54361 2.17025Z" fill="#E31337"/>
<path d="M9.6181 5.81755C9.30666 5.96795 9.3003 6.0348 9.29395 7.92869C9.29395 9.34911 9.31301 9.72789 9.38293 9.85044C9.43378 9.93399 10.0757 10.5189 10.8067 11.1539C12.116 12.2958 12.1414 12.3125 12.402 12.3125C12.7834 12.3125 13.0439 12.0841 13.0439 11.7499C13.0439 11.5215 13.0249 11.4992 11.8045 10.4242L10.5651 9.32683V7.75601C10.5651 6.65867 10.5397 6.1462 10.4889 6.04594C10.349 5.77856 9.92954 5.66716 9.6181 5.81755Z" fill="#E31337"/>
</svg>

<svg xmlns="http://www.w3.org/2000/svg" width="19" height="18" fill="currentColor" viewBox="0 0 19 18">
  <path fill="currentColor" d="m3.544 2.17-.17.17v2.82l.181.152.182.153h1.345c.816 0 1.398-.024 1.468-.059.312-.17.359-.68.077-.945-.135-.13-.218-.141-.805-.17l-.658-.03.323-.246a4.394 4.394 0 0 1 1.692-.758c.399-.076.94-.088 3.312-.07 3.177.023 3.048.012 3.952.475.646.335 1.321 1.01 1.656 1.656.47.916.458.798.458 4.198 0 3.399.012 3.281-.458 4.197-.335.646-1.01 1.321-1.656 1.656-.916.47-.799.458-4.199.458s-3.283.012-4.199-.458c-.646-.335-1.321-1.01-1.656-1.656-.428-.833-.446-.927-.47-2.7-.011-.951-.047-1.65-.088-1.75-.07-.176-.317-.334-.516-.334a.634.634 0 0 0-.529.346c-.053.13-.065.599-.047 1.808.024 1.568.035 1.656.182 2.149.276.898.628 1.503 1.269 2.178.669.693 1.374 1.127 2.337 1.427l.517.164h6.4l.517-.164c.963-.3 1.668-.734 2.338-1.427.634-.67.986-1.268 1.268-2.178l.164-.517v-6.4l-.164-.517c-.558-1.796-1.809-3.047-3.606-3.604l-.516-.165H7.044l-.517.165a5.46 5.46 0 0 0-1.61.78l-.37.253v-.323c0-.57-.234-.904-.633-.904-.141 0-.247.053-.37.17Z"/>
  <path fill="currentColor" d="M9.618 5.818c-.311.15-.318.217-.324 2.11 0 1.421.019 1.8.089 1.922.05.084.693.669 1.424 1.304 1.309 1.142 1.334 1.159 1.595 1.159.381 0 .642-.229.642-.563 0-.229-.02-.25-1.24-1.326l-1.239-1.097V7.756c0-1.097-.025-1.61-.076-1.71-.14-.267-.56-.379-.87-.228Z"/>
</svg>
